static/assets/images/networks/story.svg

<svg width="256" height="256" viewBox="0 0 256 256" fill="none" xmlns="http://www.w3.org/2000/svg">
<path d="M128 256C198.692 256 256 198.692 256 128C256 57.3077 198.692 0 128 0C57.3077 0 0 57.3077 0 128C0 198.692 57.3077 256 128 256Z" fill="white"/>
<path d="M189.5 155.001C189.5 189.118 162.093 209.5 128.276 209.5C94.4597 209.5 70.9205 189.34 66.5003 163.641H97.6645C101.091 173.389 112.252 180.478 128.276 180.478C146.068 180.478 158.888 171.506 158.888 155.555C158.888 139.604 146.401 131.407 128.166 131.407V153.893C93.7963 153.893 67.4944 134.398 67.4944 101.831C67.4944 69.2651 92.8021 47 128.387 47C162.093 47 185.3 67.0496 187.621 91.7509H157.562C155.131 82.8896 145.295 76.1323 129.05 76.1323C109.268 76.1323 98.3275 85.3264 98.3275 100.945C98.3275 116.564 110.926 124.096 128.166 124.096V100.502C165.519 100.502 189.5 122.877 189.5 155.001Z" fill="black"/>
</svg>

<svg xmlns="http://www.w3.org/2000/svg" fill="none" viewBox="0 0 256 256"><path fill="#fff" d="M128 256c70.692 0 128-57.308 128-128S198.692 0 128 0 0 57.308 0 128s57.308 128 128 128"/><path fill="#000" d="M189.5 155.001c0 34.117-27.407 54.499-61.224 54.499S70.92 189.34 66.5 163.641h31.165c3.426 9.748 14.587 16.837 30.611 16.837 17.792 0 30.612-8.972 30.612-24.923s-12.487-24.148-30.722-24.148v22.486c-34.37 0-60.672-19.495-60.672-52.062S92.802 47 128.387 47c33.706 0 56.913 20.05 59.234 44.75h-30.059c-2.431-8.86-12.267-15.618-28.512-15.618-19.782 0-30.723 9.194-30.723 24.813s12.599 23.151 29.839 23.151v-23.594c37.353 0 61.334 22.375 61.334 54.499"/></svg>
